apps/scalable/restart_highlight.svg

<svg xmlns="http://www.w3.org/2000/svg" style="isolation:isolate" width="256" height="256"><path fill="#C8B9B7" d="M165.685 11.947c74.055 0 84.639 10.557 84.639 84.544v59.251c0 73.986-10.584 84.543-84.639 84.543h-75.37c-74.055 0-84.639-10.557-84.639-84.543V96.491c0-73.987 10.584-84.544 84.639-84.544h75.37z"/><g opacity=".4"><linearGradient id="a" x1=".517" x2=".517" y2="1"><stop offset="0%" stop-color="#fff"/><stop offset="12.5%" stop-opacity=".098" stop-color="#fff"/><stop offset="92.5%" stop-opacity=".098"/><stop offset="100%" stop-opacity=".498"/></linearGradient><path fill="none" stroke="url(#a)" stroke-linecap="round" stroke-linejoin="round" stroke-width="4.077" d="M165.685 11.947c74.055 0 84.639 10.557 84.639 84.544v59.251c0 73.986-10.584 84.543-84.639 84.543h-75.37c-74.055 0-84.639-10.557-84.639-84.543V96.491c0-73.987 10.584-84.544 84.639-84.544h75.37z" vector-effect="non-scaling-stroke"/></g><path fill="#FFF" d="M5.676 126.116v29.626c0 73.986 10.584 84.543 84.639 84.543h75.37c74.055 0 84.639-10.557 84.639-84.543v-29.626H5.676z" opacity=".1"/><defs><filter id="b" width="172.266" height="172.266" x="41.87" y="41.33" filterUnits="userSpaceOnUse"><feGaussianBlur xmlns="http://www.w3.org/2000/svg" stdDeviation="1.76"/></filter></defs><circle fill-opacity=".996" r="1" transform="matrix(0 -82.034 -82.034 0 128 127.466)" vector-effect="non-scaling-stroke" opacity=".1" filter="url(#b)"/><defs><filter id="c" width="229.654" height="229.654" x="13.17" y="12.64" filterUnits="userSpaceOnUse"><feGaussianBlur xmlns="http://www.w3.org/2000/svg" stdDeviation="14.08"/></filter></defs><g opacity=".4" filter="url(#c)"><linearGradient id="d" x2="1" y1=".5" y2=".5" gradientTransform="matrix(2 0 0 2 -1 -1)" gradientUnits="userSpaceOnUse"><stop offset="0%" stop-opacity="0"/><stop offset="49.903%"/><stop offset="100%" stop-opacity="0"/></linearGradient><circle fill="url(#d)" r="1" transform="matrix(0 -82.034 -82.034 0 128 127.466)" vector-effect="non-scaling-stroke"/></g><circle fill="#F7F7F7" r="1" transform="matrix(0 -82.034 -82.034 0 128 126.534)" vector-effect="non-scaling-stroke"/><circle fill="#FFF" r="1" transform="matrix(0 -74.576 -74.576 0 128 127.466)" vector-effect="non-scaling-stroke"/><circle fill="#FE9802" r="1" transform="matrix(0 -74.576 -74.576 0 128 126.534)" vector-effect="non-scaling-stroke"/><path fill="#FFF" d="M128 44.5c-45.306 0-82.034 36.728-82.034 82.034.012.258.024.516.038.774.597-44.865 37.127-80.927 81.996-80.944 44.991.019 81.571 36.272 81.996 81.261.015-.364.028-.727.038-1.091 0-45.306-36.728-82.034-82.034-82.034z"/><path fill="#FFF" d="M126.805 85.859a42.034 42.034 0 0 0-3.315.096v.001c-13.195.925-25.471 8.284-32.36 20.217l5.414 3.123a34.341 34.341 0 0 1 38.662-16.015 34.342 34.342 0 0 1 23.703 22.287l-11.761 4.528a262.238 262.238 0 0 0 12.009 10.656 315.986 315.986 0 0 0 12.68 9.971 270.566 270.566 0 0 0 2.795-15.931 225.028 225.028 0 0 0 1.68-15.922l-11.568 4.452c-4.298-12.529-14.589-22.508-27.918-26.079a40.553 40.553 0 0 0-10.021-1.384zm-46.018 26.375a269.772 269.772 0 0 0-2.796 15.932 224.424 224.424 0 0 0-1.679 15.922l11.565-4.452c4.297 12.531 14.589 22.511 27.919 26.082a40.502 40.502 0 0 0 13.336 1.284c13.195-.925 25.474-8.281 32.363-20.213l-5.416-3.124a34.345 34.345 0 0 1-38.663 16.016 34.345 34.345 0 0 1-23.703-22.292l11.762-4.527a263.277 263.277 0 0 0-12.008-10.657 316.698 316.698 0 0 0-12.68-9.971z"/></svg>

<svg xmlns="http://www.w3.org/2000/svg" style="isolation:isolate" width="256" height="256" viewBox="0 0 256 256">
 <path fill="#C8B9B7" d="M 165.685 11.947 C 239.74 11.947 250.324 22.504 250.324 96.491 L 250.324 155.742 C 250.324 229.728 239.74 240.285 165.685 240.285 L 90.315 240.285 C 16.26 240.285 5.676 229.728 5.676 155.742 L 5.676 96.491 C 5.676 22.504 16.26 11.947 90.315 11.947 L 165.685 11.947 Z"/>
 <g opacity=".4">
  <linearGradient id="_lgradient_19" x1=".517" x2=".517" y1="0" y2="1">
   <stop offset="0%" style="stop-color:rgb(255,255,255)"/>
   <stop offset="12.5%" stop-opacity=".098" style="stop-color:rgb(255,255,255)"/>
   <stop offset="92.5%" stop-opacity=".098" style="stop-color:rgb(0,0,0)"/>
   <stop offset="100%" stop-opacity=".498" style="stop-color:rgb(0,0,0)"/>
  </linearGradient>
  <path fill="none" stroke="url(#_lgradient_19)" stroke-linecap="round" stroke-linejoin="round" stroke-width="4.077" d="M 165.685 11.947 C 239.74 11.947 250.324 22.504 250.324 96.491 L 250.324 155.742 C 250.324 229.728 239.74 240.285 165.685 240.285 L 90.315 240.285 C 16.26 240.285 5.676 229.728 5.676 155.742 L 5.676 96.491 C 5.676 22.504 16.26 11.947 90.315 11.947 L 165.685 11.947 Z" vector-effect="non-scaling-stroke"/>
 </g>
 <g opacity=".1">
  <path fill="#FFFFFF" d="M 5.676 126.116 L 5.676 155.742 C 5.676 229.728 16.26 240.285 90.315 240.285 L 165.685 240.285 C 239.74 240.285 250.324 229.728 250.324 155.742 L 250.324 126.116 L 5.676 126.116 Z"/>
 </g>
 <g>
  <defs>
   <filter id="BkfAtOEvmKwNkOr3Wk1EBRiPE7sZYHLG" width="172.266" height="172.266" x="41.87" y="41.33" filterUnits="userSpaceOnUse">
    <feGaussianBlur xmlns="http://www.w3.org/2000/svg" stdDeviation="1.76"/>
   </filter>
  </defs>
  <g opacity=".1" filter="url(#BkfAtOEvmKwNkOr3Wk1EBRiPE7sZYHLG)">
   <circle fill-opacity=".996" cx="0" cy="0" r="1" transform="matrix(0,-82.034,-82.034,0,128,127.466)" vector-effect="non-scaling-stroke"/>
  </g>
  <defs>
   <filter id="q2BgpnbCfjqMoietBDMvpdrWTdNjGbQ7" width="229.654" height="229.654" x="13.17" y="12.64" filterUnits="userSpaceOnUse">
    <feGaussianBlur xmlns="http://www.w3.org/2000/svg" stdDeviation="14.08"/>
   </filter>
  </defs>
  <g opacity=".4" filter="url(#q2BgpnbCfjqMoietBDMvpdrWTdNjGbQ7)">
   <linearGradient id="_lgradient_20" x1="0" x2="1" y1=".5" y2=".5" gradientTransform="matrix(2,0,0,2,-1,-1)" gradientUnits="userSpaceOnUse">
    <stop offset="0%" stop-opacity="0" style="stop-color:rgb(0,0,0)"/>
    <stop offset="49.903%" style="stop-color:rgb(0,0,0)"/>
    <stop offset="100%" stop-opacity="0" style="stop-color:rgb(0,0,0)"/>
   </linearGradient>
   <circle fill="url(#_lgradient_20)" cx="0" cy="0" r="1" transform="matrix(0,-82.034,-82.034,0,128,127.466)" vector-effect="non-scaling-stroke"/>
  </g>
  <circle fill="#F7F7F7" cx="0" cy="0" r="1" transform="matrix(0,-82.034,-82.034,0,128,126.534)" vector-effect="non-scaling-stroke"/>
  <circle fill="#FFFFFF" cx="0" cy="0" r="1" transform="matrix(0,-74.576,-74.576,0,128,127.466)" vector-effect="non-scaling-stroke"/>
  <circle fill="#FE9802" cx="0" cy="0" r="1" transform="matrix(0,-74.576,-74.576,0,128,126.534)" vector-effect="non-scaling-stroke"/>
  <path fill="#FFFFFF" d="M 128 44.5 C 82.694 44.5 45.966 81.228 45.966 126.534 C 45.978 126.792 45.99 127.05 46.004 127.308 C 46.601 82.443 83.131 46.381 128 46.364 C 172.991 46.383 209.571 82.636 209.996 127.625 C 210.011 127.261 210.024 126.898 210.034 126.534 C 210.034 81.228 173.306 44.5 128 44.5 L 128 44.5 Z"/>
  <path fill="#FFFFFF" d="M 126.805 85.859 C 125.695 85.847 124.59 85.88 123.49 85.955 L 123.49 85.956 C 110.295 86.881 98.019 94.24 91.13 106.173 L 96.544 109.296 C 104.33 95.809 120.164 89.25 135.206 93.281 C 146.586 96.329 155.326 104.855 158.909 115.568 L 147.148 120.096 C 150.907 123.651 154.91 127.202 159.157 130.752 C 163.391 134.256 167.618 137.58 171.837 140.723 C 172.91 135.542 173.841 130.231 174.632 124.792 C 175.4 119.313 175.962 114.006 176.312 108.87 L 164.744 113.322 C 160.446 100.793 150.155 90.814 136.826 87.243 C 133.499 86.351 130.135 85.899 126.805 85.859 L 126.805 85.859 Z M 80.787 112.234 C 79.713 117.415 78.782 122.727 77.991 128.166 C 77.223 133.645 76.661 138.952 76.312 144.088 L 87.877 139.636 C 92.174 152.167 102.466 162.147 115.796 165.718 C 120.233 166.907 124.734 167.311 129.132 167.002 C 142.327 166.077 154.606 158.721 161.495 146.789 L 156.079 143.665 C 148.293 157.152 132.458 163.711 117.416 159.681 C 106.035 156.632 97.296 148.104 93.713 137.389 L 105.475 132.862 C 101.715 129.307 97.713 125.755 93.467 122.205 C 89.232 118.701 85.006 115.377 80.787 112.234 Z"/>
 </g>
</svg>
